X:1
T:Pilib an Cheó
M:9/8
L:1/8
R:Slip Jig
N:"A Munster Hop Jig"
B:Stanford/Petrie (1905, No. 1408, p. 352)
Z:AK/Fiddler's Companion
K:G
G2A B2G c2A|d2B cAG F3|G2A B2G c2A|d2B cAF G3:|
|:ABA A2G F2D|ABA A2G F3|ABA A2G F2D|d2B cAF G3:|

